Suru++-Ubuntu/apps/symbolic/portal-symbolic.svg

<svg width="16" height="16" version="1.1" xmlns="http://www.w3.org/2000/svg">
 <path d="m7.9908239-7.6e-7c-4.4114281 0-7.9908239 3.5833055-7.9908239 7.9998564 0 4.4165534 3.5793958 8.0001444 7.9908239 8.0001444s7.9903931-3.583591 7.9903931-8.0001444c0-4.4165509-3.578965-7.9998564-7.9903931-7.9998564zm0 0.28045165c1.2065144 0 2.3479351 0.27733753 3.3645431 0.77152331v4.9325401a3.9250845 3.9298913 0 0 0-0.590581-0.7617744l0.0011-0.00114-4.6941995-4.700269c0.613483-0.15720079 1.2565448-0.24087565 1.919133-0.24087565zm-2.5282097 0.42468827 3.48326 3.4878487a3.9250845 3.9298913 0 0 0-0.9549074-0.1228729h-6.637895c0.9216563-1.5578173 2.3745274-2.762701 4.1095424-3.3649736zm6.4533658 0.64922404c1.5558 0.9228629 2.758987 2.37758 3.360383 4.1148454l-3.483117 3.4868445a3.9250845 3.9298913 0 0 0 0.122741-0.9560524zm-10.864864 3.2772222h4.9268041a3.9250845 3.9298913 0 0 0-0.7609151 0.5911545l-0.00114-0.00114-4.6943918 4.6998354c-0.1570277-0.6142792-0.2407356-1.2581321-0.2407356-1.9215797 0-1.207833 0.276953-2.3505221 0.7703784-3.3682702zm14.408774 1.4475592c0.156893 0.6140457 0.240447 1.2575206 0.240447 1.920711 0 1.2078792-0.276812 2.3507434-0.770233 3.3685584h-4.92609a3.9250845 3.9298913 0 0 0 0.760915-0.591155l1e-3 0.0011zm-11.271345 0.9648014a3.9250845 3.9298913 0 0 0-0.122741 0.9560547v6.6459233c-1.5558373-0.922795-2.759242-2.377411-3.3608135-4.11456zm0.4380238 2.971539a3.9250845 3.9298913 0 0 0 0.5904359 0.761774l-0.00114 0.0011 4.6939566 4.700266c-0.6134721 0.157223-1.256402 0.240878-1.9189902 0.240878-1.2063562 0-2.3477134-0.277283-3.3642551-0.771383zm2.4094905 1.791526a3.9250845 3.9298913 0 0 0 0.9549075 0.122873h6.6371782c-0.921566 1.557762-2.374272 2.762653-4.109111 3.364974z" style="fill:#808080"/>
</svg>

<svg xmlns="http://www.w3.org/2000/svg" width="16" height="16" version="1.1">
 <path style="fill:#808080" d="M 7.9908239,-7.6e-7 C 3.5793958,-7.6e-7 0,3.5833047 0,7.9998556 0,12.416409 3.5793958,16 7.9908239,16 12.402252,16 15.981217,12.416409 15.981217,7.9998556 15.981217,3.5833047 12.402252,-7.6e-7 7.9908239,-7.6e-7 Z m 0,0.28045165 c 1.2065144,0 2.3479351,0.27733753 3.3645431,0.77152331 V 5.9845143 A 3.9250845,3.9298913 0 0 0 10.764786,5.2227399 l 0.0011,-0.00114 L 6.0716865,0.52133094 C 6.6851695,0.36413015 7.3282313,0.28045529 7.9908195,0.28045529 Z M 5.4626142,0.70513916 8.9458742,4.1929879 A 3.9250845,3.9298913 0 0 0 7.9909668,4.070115 H 1.3530718 C 2.2747281,2.5122977 3.7275992,1.307414 5.4626142,0.70514136 Z M 11.91598,1.3543632 c 1.5558,0.9228629 2.758987,2.37758 3.360383,4.1148454 L 11.793246,8.9560531 A 3.9250845,3.9298913 0 0 0 11.915987,8.0000007 Z M 1.0511157,4.6315854 H 5.9779198 A 3.9250845,3.9298913 0 0 0 5.2170047,5.2227399 l -0.00114,-0.00114 -4.6943918,4.6998354 C 0.3644452,9.3071561 0.2807373,8.6633032 0.2807373,7.9998556 c 0,-1.207833 0.276953,-2.3505221 0.7703784,-3.3682702 z M 15.45989,6.0791446 c 0.156893,0.6140457 0.240447,1.2575206 0.240447,1.920711 0,1.2078792 -0.276812,2.3507434 -0.770233,3.3685584 h -4.92609 a 3.9250845,3.9298913 0 0 0 0.760915,-0.591155 l 10e-4,0.0011 z M 4.188545,7.043946 A 3.9250845,3.9298913 0 0 0 4.065804,8.0000007 V 14.645924 C 2.5099667,13.723129 1.306562,12.268513 0.7049905,10.531364 Z m 0.4380238,2.971539 a 3.9250845,3.9298913 0 0 0 0.5904359,0.761774 l -0.00114,0.0011 4.6939566,4.700266 c -0.6134721,0.157223 -1.256402,0.240878 -1.9189902,0.240878 -1.2063562,0 -2.3477134,-0.277283 -3.3642551,-0.771383 z m 2.4094905,1.791526 a 3.9250845,3.9298913 0 0 0 0.9549075,0.122873 h 6.6371782 c -0.921566,1.557762 -2.374272,2.762653 -4.109111,3.364974 z"/>
</svg>
